X: 504
T: Qin diao
L: 1/8
M: 2/4
K: C
dd2d [I:setbarnb 1]| 
ee3 | 
AA2d | 
c> AG2 | 
dd2e | 
c> AG2 | 
c A G G/ E/ | 
D4 |]

@@@ Tune index: 9378
